X:1
T:There’s a Light in the Valley
T:Philip Paul Bliss, 1870
T:There’s a Light in the Valley
T:Public Domain
T:Public Domain
T:Public Domain
C:Philip Paul Bliss, 1870
Z:Public Domain
%%score ( 1 2 ) ( 3 4 )
L:1/8
M:4/4
K:Bb
V:1 treble 
V:2 treble 
V:3 bass 
V:4 bass 
V:1
 [DF]>[CE] | [B,D][B,D] [B,D]>[B,D] [B,D][B,D][B,D][CE] | [DF]6 [DF]>[DF] | %3
w: 1.~Through the|val- ley of the sha- dow I must|go, Where the|
w: 2.~Now the|roll- ing of the bill- ows I can|hear, As they|
 [EG]2 [B,G]>[B,F] [B,E]2 [EG]2 | [DF]6 [DF]>[CE] | [B,D][B,D][B,D][CE] [DF][DF][DB][FA] | %6
w: cold waves of Jor- dan|roll; But the|prom- ise of my shep- herd I will|
w: beat on the turf bound|shore; But the|bea- con light of love so bright and|
 [EG]6 [Gc]>[GB] | [FA]2 [FA][FA] [FA]2 [EG][EA] | [DB]6 DD | D2 D>D DD[CD][CD] | %10
w: know, Be the|rod and the staff to my|soul. Ev- en|the val- ley as I glide, I|
w: clear, Guides my|bark, frail and lone, safe- ly|o’er. I shall|the val- ley no a- larms, For|
 [B,G]6 [B,G][CA] | [DB][DB][DB][DA] [DG]2 [DA][DB] | [DA]6 [^Fd]>[Fc] | %13
w: say, “Fol- low|me!” And with Him I’m not a-|fraid to cross|
w: smile I can|see; He will bear me in His|lov- ing, might-|
 [GB][GB][GB][GB] [Gc][GB][FA][EG] | [DF]6 [DB]>[FA] | [EG]2 [EG]>[EG] [EG] [Ec]2 [Ec] | [DB]6 || %17
w: the tide; There’s a light in the val-|ley for me.|||
w: y arms, There’s a light in the val-|ley for me.|||
"^Refrain" [B,D]>[CE] | [DF]2 D>D DD [DB]>[Ec] | [Fd]2 D>D DD [Fd]>[Fd] | %20
w: |||
w: |||
 [Gc]2 [Gc]>[Gd] [Gc][GB]([FA][EG]) | ([DF]4 [B,D]2) [B,D]>[CE] | %22
w: ||
w: ||
 [DF][DF][DB][Ec] [Fd]2 [Fd]>[Fd] | [Ge][Gd][Gc][GB] ([EG][GB]) [FA]>[EG] | %24
w: ||
w: ||
 [DF]2 F>F [EG][EG] [EA]2 | [DB]6 |] %26
w: ||
w: ||
V:2
 x2 | x8 | x8 | x8 | x8 | x8 | x8 | x8 | x6 DD | D2 D3/2DDD x3/2 | x8 | x8 | x8 | x8 | x8 | x8 | %16
w: ||||||||now down|can hear my Sav- ior|||||||
w: ||||||||find down|my Sav- ior’s bless- èd|||||||
 x6 || x2 | x8 | x8 | x8 | x8 | x8 | x8 | x8 | x6 |] %26
w: ||||||||||
w: ||||||||||
V:3
 [B,,B,]>[B,,B,] | [B,,F,][B,,F,] [B,,F,]>[B,,F,] [B,,F,][B,,F,][B,,B,][B,,B,] | %2
w: ~ ~|~ ~ ~ ~ ~ ~ ~ ~|
 [B,,C]6 [B,,B,]>[B,,B,] | [E,B,]2 [E,B,]>[E,B,] [E,G,]2 [E,B,]2 | [B,,B,]6 [B,,B,]>[B,,B,] | %5
w: ~ ~ ~|~ ~ ~ ~ ~|~ ~ ~|
 [B,,F,][B,,F,][B,,F,][B,,B,] [B,,B,][B,,B,][B,,B,][D,B,] | [E,B,]6 [E,E]>[E,D] | %7
w: ~ ~ ~ ~ ~ ~ ~ ~|~ ~ ~|
 [F,C]2 [F,C][F,C] [F,C]2 [F,C][F,C] | [B,,B,]6 D,D, | %9
w: ~ ~ ~ ~ ~ ~|~ ~ ~|
 D,2 D,>[C,D,] [B,,G,][B,,G,][A,,^F,][A,,F,] | [G,,G,]6 [G,,G,][G,,G,] | %11
w: ~ ~ ~ ~ ~ ~ ~|~ ~ ~|
 [G,,G,][G,,G,][G,,G,][A,,^F,] [B,,G,]2 [A,,F,][G,,G,] | [D,^F,]6 [D,A,]>[D,A,] | %13
w: ~ ~ ~ ~ ~ ~ ~|~ ~ ~|
 [G,B,][G,B,][G,B,][G,B,] [E,B,][E,B,][E,B,][E,B,] | [B,,B,]6 [B,,B,]>[B,,B,] | %15
w: ~ ~ ~ ~ ~ ~ ~ ~|~ ~ ~|
 [E,B,]2 [E,B,]>[E,B,] [E,B,] [E,G,]2 F, | [B,,F,]6 || [B,,F,]>[B,,F,] | %18
w: ~ ~ ~ There’s a light|in|the val-|
 [B,,B,]2 [B,,F,]>[B,,F,] [B,,F,][B,,F,] [B,,B,]>[B,,B,] | %19
w: ley, There’s a light in the val-|
 [B,,B,]2 [B,,F,]>[B,,F,] [B,,F,][B,,F,] [B,,B,]>[B,,B,] | %20
w: ley, There’s a light in the val-|
 [E,B,]2 [E,B,]>[E,B,] [E,B,][E,B,] [E,B,]2 | ([B,,B,]2 [B,,F,]2 [B,,F,]2) [B,,F,]>[B,,F,] | %22
w: ley for me, And no e-|vil * * will I|
 [B,,B,][B,,B,][B,,B,][B,,B,] [B,,B,]2 [B,,B,]>[B,,B,] | %23
w: fear while my Shep- herd is so|
 [E,B,][E,B,][E,B,][E,B,] [E,B,]2 [E,B,]>[E,B,] | [F,B,]2 [F,D]>[F,D] [F,C][F,C] F,2 | F,6 |] %26
w: near, There’s a light in the val-|ley for me. * * *||
V:4
 x2 | x8 | x8 | x8 | x8 | x8 | x8 | x8 | x6 D,D, | D,2 D,3/2 x9/2 | x8 | x8 | x8 | x8 | x8 | x8 | %16
w: ||||||||~ ~|~ ~|||||||
 x6 || x2 | x8 | x8 | x8 | x8 | x8 | x8 | x8 | F,6 |] %26
w: ||||||||||

